X:1
T:Title
%%score { ( 1 3 5 ) | ( 2 4 6 ) }
L:1/8
Q:1/4=100
M:4/4
K:Eb
V:1 bass nm="Grand Piano"
V:3 bass 
V:5 bass 
V:2 bass 
V:4 bass 
V:6 bass 
V:1
 C<[E,CE][K:treble] [F,CF]<[G,CG]- [G,CG]4 | =B,-[B,-F][B,-E][B,D] C4 | C<E F<G- G4 | %3
w: ????~???? * * * *|||
 F2 [B,DB][DA] [G,=B,DG]4 | G<A B<c F4 | F<G [FA]<[B,GB][K:bass] [E,B,E]4 | %6
w: |||
 E<[K:treble]F G<A [=B,D]4 | E2 F<G- G4 | [=B,DG]<A G<F =E F3 | F<G F<E D E3 | %10
w: ||||
 E<F E<[K:bass][G,=B,D] [E,G,C]4 | [F,=B,D]2 z/ [E,G,C]3/2- [E,G,C]4 | z4 d4- | d2 z2 z4 | z4 d4- | %15
w: |||||
 d2 z2 z4 | [Fc]<[Fc] [FB]<[FB] [DA]4 | [DB]2 A<[EG]- [EG]4 | [DFc]<[DFc] [DB]<[DB] [B,DFA]4 | %19
w: ||||
 [B,DB]2 [DA]<[=B,DG]- [B,DG]4 | [G,=B,G]<[G,B,G] [B,A]<[G,B,G][K:bass] [G,B,D]4 | %21
w: ||
 [E,=B,E]>[D,B,D] [E,G,C]6 |] %22
w: |
V:2
 C,<C, C,<C,- C,4 | z F,E,D, [C,E,G,]4 | C,<[C,E,C] [C,F,C]<[C,G,C]- [C,G,C]4 | %3
 [F,A,C]2 z A, G,,4 | [G,E]<[A,F] [A,B,F]<[A,CF][K:bass] [F,C]4 | F,<G, A,<E, E,,4 | %6
 E,<[F,D][K:treble] [G,E]<[A,F][K:bass] [G,,G,]4 | [C,G,C]2 [F,C]<[C,E,C]- [C,E,C]4 | %8
 [G,,G,]<[A,=B,] [G,B,]<[A,,G,]- [A,,G,]4 | [F,C]<[G,C] [F,C]<C z C3 | C<[F,A,C] C<G,, C,4 | %11
 G,,2 E<C,- C,4 | C,<[C,G,][K:treble] [G,=B,G]<[G,CG] G4- | G2 G2 G<[K:bass]C,,- C,,2 | %14
 z4[K:treble] G4- | G2 z2 z4[K:bass] | [F,A,]<[F,A,] [B,,B,]<[B,,B,] [B,,A,]4 | %17
 [B,,A,]2 [B,,A,]<[C,G,]- [C,G,]4 | [B,,B,]<[B,,B,] [B,,A,]<[B,,A,] B,,4 | B,,2 A,<G,- G,4 | %20
 G,,<G,, A,<G,, G,,4 | G,,>G,, C,6 |] %22
V:3
 x2[K:treble] x6 | .[D,D]2 z2 z4 | x8 | x8 | x8 | x4[K:bass] x4 | x/[K:treble] x15/2 | x8 | x8 | %9
 x8 | x5/2[K:bass] x11/2 | x8 | [G,EG]<[Ec] d<e z4 | z2 =B2 d<[E,Ec]- [E,Ec]2 | [EG]<[Ec] d<e z4 | %15
 z2 =B2 d<[Ec]- [Ec]2 | x8 | x8 | x8 | x8 | x4[K:bass] x4 | x8 |] %22
V:4
 x8 | G,,4 z4 | x8 | z2 B,,2 z4 | x4[K:bass] x4 | x8 | x2[K:treble] x2[K:bass] x4 | x8 | x8 | %9
 z2 z/ [C,G,]3/2- [C,G,]4 | x8 | x8 | z4[K:treble] [G,=B,]4 | G,,4 z4[K:bass] | %14
 C,<[C,G,][K:treble] [G,=B,G]<[G,CG] [G,B,]4 | z2 G2 G<[K:bass][C,G,]- [C,G,]2 | x8 | x8 | x8 | %19
 x8 | x8 | x8 |] %22
V:5
 x2[K:treble] x6 | x8 | x8 | x8 | x8 | x4[K:bass] x4 | x/[K:treble] x15/2 | x8 | x8 | x8 | %10
 x5/2[K:bass] x11/2 | x8 | x8 | G,4 z4 | x8 | G,4 z4 | x8 | x8 | x8 | x8 | x4[K:bass] x4 | x8 |] %22
V:6
 x8 | x8 | x8 | x8 | x4[K:bass] x4 | x8 | x2[K:treble] x2[K:bass] x4 | x8 | x8 | x8 | x8 | x8 | %12
 x2[K:treble] x6 | x9/2[K:bass] x7/2 | x2[K:treble] x6 | G,,4 z4[K:bass] | x8 | x8 | x8 | x8 | x8 | %21
 x8 |] %22

